X:1
T:Uilin
L:1/8
R:Air
B:Joyce - Old Irish Folk Music and Songs (1909, No. 761)
Z:AK/Fiddler's Companion
K:G
g|e2 dc B2AF|G2 GA B3g|e2 dc B2AF|GFGA B3||
G|GABc d2 ee|ega>g g2 ag|e2 dc B2 AG|
G2 GA B2 G/B/|d2g2f2 ed|e4 !fermata!d2 GA|B2d2 cBAF|G4 G2||

